2 Export/Branding/1 Project Logo With Text.svg

<svg xmlns="http://www.w3.org/2000/svg" xmlns:xlink="http://www.w3.org/1999/xlink" width="238" height="100" viewBox="0 0 238 100">
  <defs>
    <path id="1-project-logo-with-text-a" d="M5.8984375,73 L5.8984375,25.7558594 L15.1796875,25.7558594 L34.515625,57.3056641 L34.515625,25.7558594 L43.3779297,25.7558594 L43.3779297,73 L33.8066406,73 L14.7607422,42.1914062 L14.7607422,73 L5.8984375,73 Z M51.53125,49.6679688 C51.53125,44.8554447 52.2509694,40.8164226 53.6904297,37.5507812 C54.7646538,35.1445192 56.2309477,32.9853611 58.0893555,31.0732422 C59.9477632,29.1611233 61.9833874,27.7431687 64.1962891,26.8193359 C67.1396632,25.573236 70.5341605,24.9501953 74.3798828,24.9501953 C81.3408551,24.9501953 86.9106236,27.1093534 91.0893555,31.4277344 C95.2680873,35.7461153 97.3574219,41.7509381 97.3574219,49.4423828 C97.3574219,57.0693741 95.2842004,63.0365996 91.1376953,67.3442383 C86.9911902,71.651877 81.4482769,73.8056641 74.5087891,73.8056641 C67.4833633,73.8056641 61.8974817,71.6626191 57.7509766,67.3764648 C53.6044715,63.0903106 51.53125,57.1875376 51.53125,49.6679688 Z M61.3603516,49.3457031 C61.3603516,54.6953392 62.5956908,58.7504745 65.0664062,61.5112305 C67.5371217,64.2719865 70.6738091,65.6523438 74.4765625,65.6523438 C78.2793159,65.6523438 81.3998902,64.2827285 83.8383789,61.543457 C86.2768677,58.8041855 87.4960938,54.6953399 87.4960938,49.2167969 C87.4960938,43.8027073 86.3090939,39.7636852 83.9350586,37.0996094 C81.5610233,34.4355336 78.4082228,33.1035156 74.4765625,33.1035156 C70.5449022,33.1035156 67.3759886,34.4516467 64.9697266,37.1479492 C62.5634645,39.8442518 61.3603516,43.9101291 61.3603516,49.3457031 Z"/>
    <path id="1-project-logo-with-text-c" d="M24,65.1210938 L24,36.7226562 L29.78125,36.7226562 L29.78125,60.296875 L44.15625,60.296875 L44.15625,65.1210938 L24,65.1210938 Z M47.1054688,50.9804688 C47.1054688,48.0637875 47.5416623,45.6158953 48.4140625,43.6367188 C49.0651074,42.1783781 49.9537704,40.8697975 51.0800781,39.7109375 C52.2063858,38.5520775 53.4400975,37.6927111 54.78125,37.1328125 C56.5651131,36.3776004 58.6223842,36 60.953125,36 C65.1718961,36 68.5475134,37.3085807 71.0800781,39.9257812 C73.6126429,42.5429818 74.8789062,46.1822684 74.8789062,50.84375 C74.8789062,55.4661689 73.6224084,59.0826692 71.109375,61.6933594 C68.5963416,64.3040495 65.2370002,65.609375 61.03125,65.609375 C56.7734162,65.609375 53.3880334,64.3105599 50.875,61.7128906 C48.3619666,59.1152214 47.1054688,55.5377832 47.1054688,50.9804688 Z M53.0625,50.7851562 C53.0625,54.02736 53.8111904,56.4850177 55.3085938,58.1582031 C56.8059971,59.8313886 58.7070197,60.6679688 61.0117188,60.6679688 C63.3164178,60.6679688 65.2076749,59.8378989 66.6855469,58.1777344 C68.1634188,56.5175698 68.9023438,54.0273604 68.9023438,50.7070312 C68.9023438,47.4257648 68.1829499,44.9778727 66.7441406,43.3632812 C65.3053313,41.7486898 63.3945432,40.9414062 61.0117188,40.9414062 C58.6288943,40.9414062 56.7083406,41.7584554 55.25,43.3925781 C53.7916594,45.0267009 53.0625,47.4908689 53.0625,50.7851562 Z M92.7109375,54.59375 L92.7109375,49.7695312 L105.171875,49.7695312 L105.171875,61.1757812 C103.960931,62.3476621 102.206392,63.3795528 99.9082031,64.2714844 C97.6100146,65.1634159 95.2825639,65.609375 92.9257812,65.609375 C89.9309746,65.609375 87.3203236,64.9811261 85.09375,63.7246094 C82.8671764,62.4680927 81.194016,60.6712356 80.0742188,58.3339844 C78.9544215,55.9967331 78.3945312,53.4544408 78.3945312,50.7070312 C78.3945312,47.7252455 79.019525,45.0755324 80.2695312,42.7578125 C81.5195375,40.4400926 83.3489463,38.6627666 85.7578125,37.4257812 C87.5937592,36.4752557 89.8788926,36 92.6132812,36 C96.1679865,36 98.9446515,36.7454353 100.943359,38.2363281 C102.942067,39.727221 104.227862,41.7877473 104.800781,44.4179688 L99.0585938,45.4921875 C98.6549459,44.0859305 97.8964899,42.9759155 96.7832031,42.1621094 C95.6699163,41.3483032 94.2799562,40.9414062 92.6132812,40.9414062 C90.087227,40.9414062 88.0787835,41.7421795 86.5878906,43.34375 C85.0969978,44.9453205 84.3515625,47.3215988 84.3515625,50.4726562 C84.3515625,53.8711107 85.1067633,56.4199134 86.6171875,58.1191406 C88.1276117,59.8183679 90.1067586,60.6679688 92.5546875,60.6679688 C93.7656311,60.6679688 94.9798116,60.4303409 96.1972656,59.9550781 C97.4147196,59.4798153 98.4596311,58.9036492 99.3320312,58.2265625 L99.3320312,54.59375 L92.7109375,54.59375 Z M109.332031,50.9804688 C109.332031,48.0637875 109.768225,45.6158953 110.640625,43.6367188 C111.29167,42.1783781 112.180333,40.8697975 113.306641,39.7109375 C114.432948,38.5520775 115.66666,37.6927111 117.007812,37.1328125 C118.791676,36.3776004 120.848947,36 123.179688,36 C127.398459,36 130.774076,37.3085807 133.306641,39.9257812 C135.839205,42.5429818 137.105469,46.1822684 137.105469,50.84375 C137.105469,55.4661689 135.848971,59.0826692 133.335938,61.6933594 C130.822904,64.3040495 127.463563,65.609375 123.257812,65.609375 C118.999979,65.609375 115.614596,64.3105599 113.101562,61.7128906 C110.588529,59.1152214 109.332031,55.5377832 109.332031,50.9804688 Z M115.289062,50.7851562 C115.289062,54.02736 116.037753,56.4850177 117.535156,58.1582031 C119.03256,59.8313886 120.933582,60.6679688 123.238281,60.6679688 C125.54298,60.6679688 127.434237,59.8378989 128.912109,58.1777344 C130.389981,56.5175698 131.128906,54.0273604 131.128906,50.7070312 C131.128906,47.4257648 130.409512,44.9778727 128.970703,43.3632812 C127.531894,41.7486898 125.621106,40.9414062 123.238281,40.9414062 C120.855457,40.9414062 118.934903,41.7584554 117.476562,43.3925781 C116.018222,45.0267009 115.289062,47.4908689 115.289062,50.7851562 Z"/>
  </defs>
  <g fill="none" fill-rule="evenodd">
    <rect width="100" height="100"/>
    <mask id="1-project-logo-with-text-b" fill="#fff">
      <use xlink:href="#1-project-logo-with-text-a"/>
    </mask>
    <use fill="#000" fill-rule="nonzero" xlink:href="#1-project-logo-with-text-a"/>
    <g fill="#000" mask="url(#1-project-logo-with-text-b)">
      <rect width="100" height="100"/>
    </g>
    <g transform="translate(100 -1)">
      <mask id="1-project-logo-with-text-d" fill="#fff">
        <use xlink:href="#1-project-logo-with-text-c"/>
      </mask>
      <use fill="#000" fill-rule="nonzero" xlink:href="#1-project-logo-with-text-c"/>
      <g fill="#000" mask="url(#1-project-logo-with-text-d)">
        <rect width="138" height="100" transform="translate(0 .805)"/>
      </g>
    </g>
  </g>
</svg>

<svg xmlns="http://www.w3.org/2000/svg" xmlns:xlink="http://www.w3.org/1999/xlink" width="238" height="100" viewBox="0 0 238 100">
  <defs>
    <path id="1-project-logo-with-text-a" d="M5.898 73V25.756h9.282l19.336 31.55v-31.55h8.862V73h-9.571L14.76 42.191V73H5.898zm45.633-23.332c0-4.813.72-8.852 2.16-12.117a22.235 22.235 0 0 1 4.398-6.478c1.859-1.912 3.894-3.33 6.107-4.254 2.944-1.246 6.338-1.869 10.184-1.869 6.96 0 12.53 2.16 16.71 6.478 4.178 4.318 6.267 10.323 6.267 18.014 0 7.627-2.073 13.595-6.22 17.902-4.146 4.308-9.689 6.462-16.628 6.462-7.026 0-12.612-2.143-16.758-6.43-4.147-4.286-6.22-10.188-6.22-17.708zm9.83-.322c0 5.35 1.235 9.404 3.705 12.165 2.471 2.761 5.608 4.141 9.41 4.141 3.803 0 6.924-1.37 9.362-4.109 2.439-2.739 3.658-6.848 3.658-12.326 0-5.414-1.187-9.453-3.56-12.117-2.375-2.664-5.528-3.996-9.46-3.996-3.931 0-7.1 1.348-9.506 4.044-2.407 2.696-3.61 6.762-3.61 12.198z"/>
    <path id="1-project-logo-with-text-c" d="M24 65.121V36.723h5.781v23.574h14.375v4.824H24zm23.105-14.14c0-2.917.437-5.365 1.31-7.344a13.476 13.476 0 0 1 2.665-3.926c1.126-1.159 2.36-2.018 3.701-2.578C56.565 36.378 58.622 36 60.953 36c4.219 0 7.595 1.309 10.127 3.926 2.533 2.617 3.799 6.256 3.799 10.918 0 4.622-1.257 8.239-3.77 10.85-2.513 2.61-5.872 3.915-10.078 3.915-4.258 0-7.643-1.298-10.156-3.896-2.513-2.598-3.77-6.175-3.77-10.733zm5.958-.196c0 3.242.748 5.7 2.246 7.373 1.497 1.673 3.398 2.51 5.703 2.51 2.304 0 4.196-.83 5.674-2.49 1.477-1.66 2.216-4.15 2.216-7.471 0-3.281-.72-5.73-2.158-7.344-1.439-1.614-3.35-2.422-5.732-2.422-2.383 0-4.304.817-5.762 2.452-1.458 1.634-2.188 4.098-2.188 7.392zm39.648 3.809V49.77h12.46v11.406c-1.21 1.172-2.965 2.204-5.263 3.095-2.298.892-4.625 1.338-6.982 1.338-2.995 0-5.606-.628-7.832-1.884-2.227-1.257-3.9-3.054-5.02-5.391-1.12-2.337-1.68-4.88-1.68-7.627 0-2.982.626-5.631 1.876-7.95 1.25-2.317 3.079-4.094 5.488-5.331 1.836-.95 4.12-1.426 6.855-1.426 3.555 0 6.332.745 8.33 2.236 2 1.491 3.285 3.552 3.858 6.182l-5.742 1.074c-.404-1.406-1.163-2.516-2.276-3.33-1.113-.814-2.503-1.22-4.17-1.22-2.526 0-4.534.8-6.025 2.402-1.491 1.601-2.236 3.978-2.236 7.129 0 3.398.755 5.947 2.265 7.646 1.51 1.7 3.49 2.549 5.938 2.549 1.21 0 2.425-.238 3.642-.713 1.218-.475 2.263-1.051 3.135-1.728v-3.633h-6.621zm16.621-3.614c0-2.916.436-5.364 1.309-7.343a13.476 13.476 0 0 1 2.666-3.926c1.126-1.159 2.36-2.018 3.7-2.578 1.785-.755 3.842-1.133 6.173-1.133 4.218 0 7.594 1.309 10.127 3.926 2.532 2.617 3.798 6.256 3.798 10.918 0 4.622-1.256 8.239-3.77 10.85-2.512 2.61-5.871 3.915-10.077 3.915-4.258 0-7.643-1.298-10.156-3.896-2.513-2.598-3.77-6.175-3.77-10.733zm5.957-.195c0 3.242.749 5.7 2.246 7.373 1.498 1.673 3.399 2.51 5.703 2.51 2.305 0 4.196-.83 5.674-2.49 1.478-1.66 2.217-4.15 2.217-7.471 0-3.281-.72-5.73-2.158-7.344-1.44-1.614-3.35-2.422-5.733-2.422-2.383 0-4.303.817-5.761 2.452-1.459 1.634-2.188 4.098-2.188 7.392z"/>
  </defs>
  <g fill="none" fill-rule="evenodd">
    <rect width="100" height="100"/>
    <mask id="1-project-logo-with-text-b" fill="#fff">
      <use xlink:href="#1-project-logo-with-text-a"/>
    </mask>
    <use fill="#000" fill-rule="nonzero" xlink:href="#1-project-logo-with-text-a"/>
    <g fill="#000" mask="url(#1-project-logo-with-text-b)">
      <rect width="100" height="100"/>
    </g>
    <g transform="translate(100 -1)">
      <mask id="1-project-logo-with-text-d" fill="#fff">
        <use xlink:href="#1-project-logo-with-text-c"/>
      </mask>
      <use fill="#000" fill-rule="nonzero" xlink:href="#1-project-logo-with-text-c"/>
      <g fill="#000" mask="url(#1-project-logo-with-text-d)">
        <rect width="138" height="100" transform="translate(0 .805)"/>
      </g>
    </g>
  </g>
</svg>
